brandFactory_export/1.Light/TK _1Light.svg

<?xml version="1.0" encoding="UTF-8"?>
<svg width="24px" height="24px" viewBox="0 0 24 24" version="1.1" xmlns="http://www.w3.org/2000/svg" xmlns:xlink="http://www.w3.org/1999/xlink">
    <title>1.Light/TK _1Light</title>
    <g id="Symbols" stroke="none" stroke-width="1" fill="none" fill-rule="evenodd">
        <g id="1.Light/TK-_1Light" fill="#5CB615" fill-rule="nonzero">
            <path d="M11.8084034,22.6386555 C18.994958,22.6386555 22.6352941,18.9983193 22.6352941,11.8151261 C22.6352941,4.62857143 18.9915966,0.988235294 11.8084034,0.988235294 C4.62521008,0.988235294 0.98487395,4.62857143 0.98487395,11.8151261 C0.98487395,18.994958 4.62857143,22.6386555 11.8084034,22.6386555 Z M11.8084034,0 C19.5394958,0 23.6235294,4.08739496 23.6235294,11.8151261 C23.6235294,19.5394958 19.5394958,23.6235294 11.8084034,23.6235294 C4.08403361,23.6235294 0,19.5394958 0,11.8151261 C0,4.08739496 4.08403361,0 11.8084034,0 Z M11.4151261,5.93277311 C11.6201681,5.93277311 11.7848739,6.10084034 11.7848739,6.30588235 C11.7848739,6.32941176 11.7815126,6.35294118 11.7781513,6.37310924 L11.6907563,6.81680672 C11.6571429,6.99159664 11.502521,7.11596639 11.3277311,7.11596639 L8.19159664,7.11596639 L8.19159664,17.3142857 C8.19159664,17.5193277 8.02689076,17.6840336 7.82184874,17.6840336 L7.33445378,17.6840336 C7.12941176,17.6840336 6.96470588,17.5193277 6.96470588,17.3142857 L6.96470588,7.11596639 L3.75462185,7.11596639 C3.54957983,7.11596639 3.38487395,6.9512605 3.38487395,6.74621849 L3.38487395,6.30252101 C3.38487395,6.09747899 3.54957983,5.93277311 3.75462185,5.93277311 L11.4151261,5.93277311 Z M20.1848739,17.1294118 C20.2890756,17.3042017 20.2319328,17.5327731 20.0571429,17.6369748 C20,17.6705882 19.9361345,17.687395 19.8689076,17.6907563 L19.3210084,17.6907563 C19.189916,17.6907563 19.0689076,17.6201681 19.0016807,17.5092437 L15.6403361,11.8789916 L14.1882353,13.697479 L14.1882353,17.3176471 C14.1882353,17.5226891 14.0235294,17.687395 13.8184874,17.687395 L13.3378151,17.687395 C13.1327731,17.687395 12.9680672,17.5226891 12.9680672,17.3176471 L12.9680672,6.3092437 C12.9680672,6.10420168 13.1327731,5.9394958 13.3378151,5.9394958 L13.8184874,5.9394958 C14.0235294,5.9394958 14.1882353,6.10420168 14.1882353,6.3092437 L14.1882353,11.8319328 L18.7596639,6.07731092 C18.8302521,5.98991597 18.9378151,5.9394958 19.0487395,5.9394958 L19.6134454,5.9394958 C19.8184874,5.94285714 19.9831933,6.11092437 19.9798319,6.31596639 C19.9798319,6.39663866 19.9529412,6.47394958 19.902521,6.54117647 L16.4403361,10.9109244 L20.1848739,17.1294118 L20.1848739,17.1294118 Z" id="TK-_1Light"></path>
        </g>
    </g>
</svg>

<svg width="24" height="24" viewBox="0 0 24 24" xmlns="http://www.w3.org/2000/svg"><path d="M11.808 22.639c7.187 0 10.827-3.64 10.827-10.824C22.635 4.63 18.992.988 11.808.988 4.625.988.985 4.628.985 11.815c0 7.18 3.644 10.824 10.823 10.824zm0-22.639c7.731 0 11.816 4.087 11.816 11.815 0 7.724-4.085 11.809-11.816 11.809C4.084 23.624 0 19.539 0 11.815 0 4.087 4.084 0 11.808 0zm-.393 5.933a.372.372 0 01.363.44l-.087.444a.37.37 0 01-.363.299H8.192v10.198c0 .205-.165.37-.37.37h-.488a.369.369 0 01-.37-.37V7.116h-3.21a.369.369 0 01-.37-.37v-.443c0-.206.166-.37.37-.37h7.661zm8.77 11.196a.371.371 0 01-.316.562h-.548a.375.375 0 01-.32-.182l-3.36-5.63-1.453 1.818v3.62c0 .206-.164.37-.37.37h-.48a.369.369 0 01-.37-.37V6.31c0-.205.165-.37.37-.37h.48c.206 0 .37.165.37.37v5.523l4.572-5.755a.373.373 0 01.289-.138h.564c.205.004.37.172.367.377 0 .08-.027.158-.077.225l-3.463 4.37 3.745 6.218z" fill="#5CB615" fill-rule="nonzero"/></svg>
